images/menu-css.svg

<?xml version="1.0" encoding="UTF-8" standalone="no"?>
<svg xmlns="http://www.w3.org/2000/svg" xmlns:xlink="http://www.w3.org/1999/xlink" xmlns:sketch="http://www.bohemiancoding.com/sketch/ns" width="102px" height="52px" viewBox="0 0 102 52" version="1.1">
	<defs>
		<filter x="-50%" y="-50%" width="200%" height="200%" filterUnits="objectBoundingBox" id="filter-1">
			<feOffset dx="0" dy="1" in="SourceAlpha" result="shadowOffsetInner1"/>
			<feGaussianBlur stdDeviation="1" in="shadowOffsetInner1" result="shadowBlurInner1"/>
			<feComposite in="shadowBlurInner1" in2="SourceAlpha" operator="arithmetic" k2="-1" k3="1" result="shadowInnerInner1"/>
			<feColorMatrix values="0 0 0 0 0   0 0 0 0 0   0 0 0 0 0  0 0 0 1 0" in="shadowInnerInner1" type="matrix" result="shadowMatrixInner1"/>
			<feMerge>
				<feMergeNode in="SourceGraphic"/>
				<feMergeNode in="shadowMatrixInner1"/>
			</feMerge>
		</filter>
	</defs>
	<g id="Page-1" stroke="none" stroke-width="1" fill="none" fill-rule="evenodd" sketch:type="MSPage">
		<path d="M31,49.4375 C27.3749819,50.7916734 24.1250144,51.46875 21.25,51.46875 C17.4583144,51.46875 13.9687659,50.4531352 10.78125,48.421875 C7.59373406,46.3906148 5.11459219,43.3698117 3.34375,39.359375 C1.57290781,35.3489383 0.6875,30.8125253 0.6875,25.75 C0.6875,20.7291416 1.56249125,16.21877 3.3125,12.21875 C5.06250875,8.21873 7.53123406,5.18751031 10.71875,3.125 C13.9062659,1.06248969 17.4166475,0.03125 21.25,0.03125 C24.1250144,0.03125 27.3749819,0.708326562 31,2.0625 L31,8.8125 C27.6458166,6.87499031 24.3125166,5.90625 21,5.90625 C18.4999875,5.90625 16.213552,6.76040812 14.140625,8.46875 C12.067698,10.1770919 10.3958397,12.6822752 9.125,15.984375 C7.85416031,19.2864748 7.21875,21.8749806 7.21875,25.75 C7.21875,29.6875197 7.87499344,32.3229 9.1875,35.65625 C10.5000066,38.9896 12.1770731,41.4843667 14.21875,43.140625 C16.2604269,44.7968833 18.5208209,45.625 21,45.625 C24.2916831,45.625 27.6249831,44.6562597 31,42.71875 L31,49.4375 Z M37.3125,47.96875 L37.3125,42.03125 C42.312525,44.4062619 46.8541462,45.59375 50.9375,45.59375 C52.6458419,45.59375 54.2812422,45.2656283 55.84375,44.609375 C57.4062578,43.9531217 58.9263008,42.7270083 59.59375,40.4482422 C60.2611992,38.1694761 60.0416722,35.5156323 58.9375,34.046875 C57.8333278,32.5781177 55.7604319,30.9583422 52.71875,29.1875 L49.53125,27.34375 L46.3125,25.5 C40.645805,22.1458166 37.8125,17.9791916 37.8125,13 C37.8125,9.35414844 39.0781123,6.28647078 41.609375,3.796875 C44.1406377,1.30727922 48.0937231,0.0625 53.46875,0.0625 C56.9271006,0.0625 60.2708172,0.562495 63.5,1.5625 L63.5,7.96875 C59.9374822,6.59374313 56.4687669,5.90625 53.09375,5.90625 C50.4062366,5.90625 48.6008301,6.3515625 46.9511719,7.46728516 C45.3015137,8.58300781 44.09375,10.15624 44.09375,12.15625 C44.09375,14.1354266 44.7291603,15.7812434 46,17.09375 C47.2708397,18.4062566 48.8958234,19.6145778 50.875,20.71875 L53.3125,22.1875 L56.34375,24.03125 L58.90625,25.53125 C64.2187766,28.7812662 66.875,32.8645588 66.875,37.78125 C66.875,41.5312687 65.5104303,44.7499866 62.78125,47.4375 C60.0520697,50.1250134 55.6771134,51.46875 49.65625,51.46875 C47.7395738,51.46875 45.911467,51.3072933 44.171875,50.984375 C42.432283,50.6614567 40.1458475,49.9895884 37.3125,48.96875 L37.3125,47.96875 Z M72.3125,47.96875 L72.3125,42.03125 C77.312525,44.4062619 81.8541462,45.59375 85.9375,45.59375 C87.6458419,45.59375 89.2812422,45.2656283 90.84375,44.609375 C92.4062578,43.9531217 93.9263008,42.7270083 94.59375,40.4482422 C95.2611992,38.1694761 95.0416722,35.5156323 93.9375,34.046875 C92.8333278,32.5781177 90.7604319,30.9583422 87.71875,29.1875 L84.53125,27.34375 L81.3125,25.5 C75.645805,22.1458166 72.8125,17.9791916 72.8125,13 C72.8125,9.35414844 74.0781123,6.28647078 76.609375,3.796875 C79.1406377,1.30727922 83.0937231,0.0625 88.46875,0.0625 C91.9271006,0.0625 95.2708172,0.562495 98.5,1.5625 L98.5,7.96875 C94.9374822,6.59374313 91.4687669,5.90625 88.09375,5.90625 C85.4062366,5.90625 83.6008301,6.3515625 81.9511719,7.46728516 C80.3015137,8.58300781 79.09375,10.15624 79.09375,12.15625 C79.09375,14.1354266 79.7291603,15.7812434 81,17.09375 C82.2708397,18.4062566 83.8958234,19.6145778 85.875,20.71875 L88.3125,22.1875 L91.34375,24.03125 L93.90625,25.53125 C99.2187766,28.7812662 101.875,32.8645588 101.875,37.78125 C101.875,41.5312687 100.51043,44.7499866 97.78125,47.4375 C95.0520697,50.1250134 90.6771134,51.46875 84.65625,51.46875 C82.7395738,51.46875 80.911467,51.3072933 79.171875,50.984375 C77.432283,50.6614567 75.1458475,49.9895884 72.3125,48.96875 L72.3125,47.96875 Z" id="CSS" fill="#7ED321" filter="url(#filter-1)" sketch:type="MSShapeGroup"/>
	</g>
</svg>

<svg xmlns="http://www.w3.org/2000/svg" viewBox="0 0 102 52">
	<defs>
		<filter x="-50%" y="-50%" width="200%" height="200%" filterUnits="objectBoundingBox" id="filter-1">
			<feOffset dx="0" dy="1" in="SourceAlpha" result="shadowOffsetInner1"/>
			<feGaussianBlur stdDeviation="1" in="shadowOffsetInner1" result="shadowBlurInner1"/>
			<feComposite in="shadowBlurInner1" in2="SourceAlpha" operator="arithmetic" k2="-1" k3="1" result="shadowInnerInner1"/>
			<feColorMatrix values="0 0 0 0 0   0 0 0 0 0   0 0 0 0 0  0 0 0 1 0" in="shadowInnerInner1" type="matrix" result="shadowMatrixInner1"/>
			<feMerge>
				<feMergeNode in="SourceGraphic"/>
				<feMergeNode in="shadowMatrixInner1"/>
			</feMerge>
		</filter>
	</defs>
	<g fill="none" fill-rule="evenodd">
		<path d="M31 49.4c-3.6 1.4-6.9 2-9.8 2a19.1 19.1 0 0 1-17.9-12C1.6 35.4.7 30.8.7 25.8s.9-9.6 2.6-13.6A19 19 0 0 1 21.3 0c2.8 0 6 .7 9.7 2v6.8C27.6 6.8 24.3 6 21 6c-2.5 0-4.8.9-6.9 2.6a24.6 24.6 0 0 0-7 17.3 29 29 0 0 0 2 9.9c1.4 3.3 3 5.8 5.1 7.4 2 1.7 4.3 2.5 6.8 2.5 3.3 0 6.6-1 10-2.9v6.7Zm6.3-1.4v-6c5 2.4 9.6 3.6 13.6 3.6 1.7 0 3.4-.3 5-1 1.5-.6 3-1.9 3.7-4.2.7-2.2.4-4.9-.7-6.4-1-1.4-3.1-3-6.2-4.8l-3.2-1.9-3.2-1.8c-5.7-3.4-8.5-7.5-8.5-12.5 0-3.6 1.3-6.7 3.8-9.2C44.1 1.3 48.1.1 53.5.1c3.4 0 6.8.5 10 1.5V8c-3.6-1.4-7-2-10.4-2A10 10 0 0 0 47 7.5c-1.7 1-3 2.7-3 4.7s.7 3.6 2 4.9c1.3 1.3 2.9 2.5 4.9 3.6l2.4 1.5 3 1.8 2.6 1.5c5.3 3.3 8 7.4 8 12.3 0 3.7-1.4 7-4.1 9.6-2.7 2.7-7.1 4-13.1 4A30 30 0 0 1 37.3 49v-1Zm35 0v-6c5 2.4 9.6 3.6 13.6 3.6 1.7 0 3.4-.3 5-1 1.5-.6 3-1.9 3.7-4.2.7-2.2.4-4.9-.7-6.4-1-1.4-3.1-3-6.2-4.8l-3.2-1.9-3.2-1.8c-5.7-3.4-8.5-7.5-8.5-12.5 0-3.6 1.3-6.7 3.8-9.2C79.1 1.3 83.1.1 88.5.1c3.4 0 6.8.5 10 1.5V8c-3.6-1.4-7-2-10.4-2A10 10 0 0 0 82 7.5c-1.7 1-3 2.7-3 4.7s.7 3.6 2 4.9c1.3 1.3 2.9 2.5 4.9 3.6l2.4 1.5 3 1.8 2.6 1.5c5.3 3.3 8 7.4 8 12.3 0 3.7-1.4 7-4.1 9.6-2.7 2.7-7.1 4-13.1 4A30 30 0 0 1 72.3 49v-1Z" id="CSS" fill="#7ED321" filter="url(#filter-1)"/>
	</g>
</svg>
